icons/invenio-rdm.svg

<?xml version="1.0" encoding="UTF-8" standalone="no"?>
<!-- Created with Inkscape (http://www.inkscape.org/) -->

<svg
   xmlns:dc="http://purl.org/dc/elements/1.1/"
   xmlns:cc="http://creativecommons.org/ns#"
   xmlns:rdf="http://www.w3.org/1999/02/22-rdf-syntax-ns#"
   xmlns:svg="http://www.w3.org/2000/svg"
   xmlns="http://www.w3.org/2000/svg"
   xmlns:xlink="http://www.w3.org/1999/xlink"
   xmlns:sodipodi="http://sodipodi.sourceforge.net/DTD/sodipodi-0.dtd"
   xmlns:inkscape="http://www.inkscape.org/namespaces/inkscape"
   width="100%"
   height="100%"
   viewBox="0 0 29.069883 10.420284"
   version="1.1"
   id="svg10127"
   inkscape:version="0.92.2 5c3e80d, 2017-08-06"
   sodipodi:docname="invenio-rdm.svg">
  <defs
     id="defs10121" />
  <sodipodi:namedview
     id="base"
     pagecolor="#ffffff"
     bordercolor="#666666"
     borderopacity="1.0"
     inkscape:pageopacity="0.0"
     inkscape:pageshadow="2"
     inkscape:zoom="98.865207"
     inkscape:cx="14.534905"
     inkscape:cy="5.2101433"
     inkscape:document-units="mm"
     inkscape:current-layer="g20930"
     showgrid="false"
     inkscape:pagecheckerboard="true"
     fit-margin-top="0"
     fit-margin-left="0"
     fit-margin-right="0"
     fit-margin-bottom="0"
     inkscape:window-width="3440"
     inkscape:window-height="1395"
     inkscape:window-x="0"
     inkscape:window-y="1"
     inkscape:window-maximized="1" />
  <metadata
     id="metadata10124">
    <rdf:RDF>
      <cc:Work
         rdf:about="">
        <dc:format>image/svg+xml</dc:format>
        <dc:type
           rdf:resource="http://purl.org/dc/dcmitype/StillImage" />
        <dc:title />
      </cc:Work>
    </rdf:RDF>
  </metadata>
  <g
     inkscape:label="Layer 1"
     inkscape:groupmode="layer"
     id="layer1"
     transform="translate(1142.2809,279.38339)">
    <a
       transform="matrix(0.26458333,0,0,0.26458333,-1279.7936,-339.14401)"
       style="display:inline"
       id="a9715"
       xlink:href="/products/rdm/">
      <g
         transform="translate(0.9420447)"
         id="g20930">
        <g
           aria-label="RDM"
           transform="scale(0.96631971,1.0348542)"
           style="font-style:normal;font-variant:normal;font-weight:600;font-stretch:normal;font-size:37.37073898px;line-height:1.25;font-family:Oswald;-inkscape-font-specification:'Oswald, Semi-Bold';font-variant-ligatures:normal;font-variant-caps:normal;font-variant-numeric:normal;font-feature-settings:normal;text-align:start;letter-spacing:0px;word-spacing:0px;writing-mode:lr-tb;text-anchor:start;fill:#fb8273;fill-opacity:1;stroke:none;stroke-width:7.56652451;stroke-miterlimit:4;stroke-dasharray:none"
           id="text19212">
          <path
             id="path32121"
             style="font-style:normal;font-variant:normal;font-weight:600;font-stretch:normal;font-size:37.37073898px;font-family:Oswald;-inkscape-font-specification:'Oswald, Semi-Bold';font-variant-ligatures:normal;font-variant-caps:normal;font-variant-numeric:normal;font-feature-settings:normal;text-align:start;writing-mode:lr-tb;text-anchor:start;stroke-width:7.56652451"
             d="m 628.93512,251.59732 0.52319,-30.2703 h 6.53987 l 3.73708,19.09645 3.99867,-19.09645 h 6.31565 l 0.52319,30.2703 h -4.48449 l -0.48582,-20.51654 -3.84918,20.51654 h -3.84919 l -4.03604,-20.66602 -0.41108,20.66602 z m -21.27388,0 v -30.2703 h 7.3994 q 3.84919,0 5.97932,1.00901 2.1675,0.97164 3.0644,3.10177 0.8969,2.09276 0.8969,5.38139 v 11.02437 q 0,3.36336 -0.8969,5.53087 -0.8969,2.1675 -3.02703,3.21388 -2.09276,1.00901 -5.8672,1.00901 z m 6.16617,-4.29763 h 1.30798 q 1.71905,0 2.42909,-0.52319 0.74742,-0.56057 0.93427,-1.60695 0.18686,-1.08375 0.18686,-2.65332 V 230.0344 q 0,-1.56957 -0.2616,-2.50384 -0.22422,-0.97163 -0.97164,-1.42008 -0.71004,-0.44845 -2.35436,-0.44845 h -1.2706 z m -27.84412,4.29763 v -30.2703 h 7.84785 q 3.06441,0 5.23191,0.71005 2.20487,0.67267 3.36336,2.42909 1.19587,1.75643 1.19587,4.8582 0,1.86854 -0.33634,3.326 -0.29896,1.42008 -1.12112,2.50384 -0.78479,1.04638 -2.24224,1.68168 l 4.18552,14.76144 h -6.31566 l -3.47548,-13.71506 h -2.1675 v 13.71506 z m 6.16617,-17.37739 h 1.7938 q 1.49483,0 2.35435,-0.48582 0.85953,-0.48582 1.19587,-1.45746 0.3737,-1.00901 0.3737,-2.46647 0,-2.09276 -0.78478,-3.17651 -0.74742,-1.12113 -2.84018,-1.12113 h -2.09276 z"
             inkscape:connector-curvature="0" />
        </g>
        <g
           transform="matrix(0.43046721,0,0,0.43046721,198.64479,126.38329)"
           id="g20690">
          <g
             id="g20682"
             transform="translate(474.21725,226.44114)">
            <g
               id="g20680">
              <g
                 id="g20678">
                <path
                   inkscape:connector-curvature="0"
                   d="m 328.162,4.665 c -18.767,0 -34.032,15.268 -34.032,34.034 0,7.28 2.306,14.028 6.214,19.568 l -30.078,26.432 c -1.881,1.878 0.067,6.867 1.944,8.749 1.879,1.876 6.87,3.822 8.748,1.943 l 26.265,-29.894 c 5.779,4.525 13.047,7.233 20.939,7.233 18.768,0 34.034,-15.267 34.034,-34.032 0,-18.765 -15.266,-34.033 -34.034,-34.033 z m 0,56.722 c -12.51,0 -22.689,-10.177 -22.689,-22.688 0,-12.511 10.18,-22.69 22.689,-22.69 12.513,0 22.688,10.18 22.688,22.69 0,12.51 -10.175,22.688 -22.688,22.688 z"
                   id="path20676"
                   style="fill:#ffffff" />
              </g>
            </g>
          </g>
          <g
             id="g20688"
             transform="matrix(0.38742049,0,0,0.38742049,670.93796,251.12579)">
            <path
               inkscape:connector-curvature="0"
               d="m 375.104,38.079 c 0.174,18.184 -8.123,32.126 -11.51,37.52 8.183,-5.347 19.898,-19.36 19.674,-37.661 0.174,-18.183 -11.431,-32.127 -19.631,-37.52 3.323,5.347 11.691,19.36 11.467,37.661 z"
               id="path20684"
               style="fill:#ffffff" />
            <path
               inkscape:connector-curvature="0"
               d="m 375.104,38.079 c 0.174,18.184 -8.123,32.126 -11.51,37.52 8.183,-5.347 19.898,-19.36 19.674,-37.661 0.174,-18.183 -11.431,-32.127 -19.631,-37.52 3.323,5.347 11.691,19.36 11.467,37.661 z"
               id="path20686"
               style="fill:none;stroke:#ffffff" />
          </g>
        </g>
      </g>
    </a>
  </g>
</svg>

<?xml version="1.0" encoding="UTF-8" standalone="no"?>
<!DOCTYPE svg PUBLIC "-//W3C//DTD SVG 1.1//EN" "http://www.w3.org/Graphics/SVG/1.1/DTD/svg11.dtd">
<svg width="100%" height="100%" viewBox="0 0 30 11" version="1.1" xmlns="http://www.w3.org/2000/svg" xmlns:xlink="http://www.w3.org/1999/xlink" xml:space="preserve" xmlns:serif="http://www.serif.com/" style="fill-rule:evenodd;clip-rule:evenodd;">
    <g id="g20930" transform="matrix(0.264583,0,0,0.264583,-137.263,-59.7606)">
        <g id="Layer-1" serif:id="Layer 1">
            <g id="a9715">
                <g id="g209301" serif:id="g20930">
                    <g id="text19212" transform="matrix(0.96632,0,0,1.03485,0,0)">
                        <path id="path32121" d="M628.935,251.597L629.458,221.327L635.998,221.327L639.735,240.423L643.734,221.327L650.05,221.327L650.573,251.597L646.088,251.597L645.602,231.081L641.753,251.597L637.904,251.597L633.868,230.931L633.457,251.597L628.935,251.597ZM607.661,251.597L607.661,221.327L615.061,221.327C617.627,221.327 619.62,221.663 621.04,222.336C622.485,222.984 623.506,224.018 624.104,225.438C624.702,226.833 625.001,228.627 625.001,230.819L625.001,241.844C625.001,244.086 624.702,245.929 624.104,247.374C623.506,248.819 622.497,249.891 621.077,250.588C619.682,251.261 617.726,251.597 615.21,251.597L607.661,251.597ZM613.827,247.3L615.135,247.3C616.281,247.3 617.091,247.125 617.564,246.777C618.063,246.403 618.374,245.867 618.499,245.17C618.623,244.447 618.686,243.563 618.686,242.516L618.686,230.034C618.686,228.988 618.598,228.153 618.424,227.531C618.275,226.883 617.951,226.409 617.452,226.11C616.979,225.812 616.194,225.662 615.098,225.662L613.827,225.662L613.827,247.3ZM585.983,251.597L585.983,221.327L593.831,221.327C595.874,221.327 597.618,221.564 599.063,222.037C600.533,222.486 601.654,223.295 602.426,224.466C603.224,225.637 603.622,227.257 603.622,229.324C603.622,230.57 603.51,231.679 603.286,232.65C603.087,233.597 602.713,234.432 602.165,235.154C601.642,235.852 600.894,236.412 599.923,236.836L604.108,251.597L597.792,251.597L594.317,237.882L592.149,237.882L592.149,251.597L585.983,251.597ZM592.149,234.22L593.943,234.22C594.94,234.22 595.725,234.058 596.298,233.734C596.871,233.41 597.269,232.924 597.493,232.277C597.743,231.604 597.867,230.782 597.867,229.81C597.867,228.415 597.606,227.356 597.082,226.634C596.584,225.886 595.637,225.513 594.242,225.513L592.149,225.513L592.149,234.22Z" style="fill:rgb(251,130,115);fill-rule:nonzero;"/>
                    </g>
                    <g id="g20690" transform="matrix(0.430467,0,0,0.430467,198.645,126.383)">
                        <g id="g20682" transform="matrix(1,0,0,1,474.217,226.441)">
                            <g id="g20680">
                                <g id="g20678">
                                    <path id="path20676" d="M328.162,4.665C309.395,4.665 294.13,19.933 294.13,38.699C294.13,45.979 296.436,52.727 300.344,58.267L270.266,84.699C268.385,86.577 270.333,91.566 272.21,93.448C274.089,95.324 279.08,97.27 280.958,95.391L307.223,65.497C313.002,70.022 320.27,72.73 328.162,72.73C346.93,72.73 362.196,57.463 362.196,38.698C362.196,19.933 346.93,4.665 328.162,4.665ZM328.162,61.387C315.652,61.387 305.473,51.21 305.473,38.699C305.473,26.188 315.653,16.009 328.162,16.009C340.675,16.009 350.85,26.189 350.85,38.699C350.85,51.209 340.675,61.387 328.162,61.387Z" style="fill:white;fill-rule:nonzero;"/>
                                </g>
                            </g>
                        </g>
                        <g id="g20688" transform="matrix(0.38742,0,0,0.38742,670.938,251.126)">
                            <path id="path20684" d="M375.104,38.079C375.278,56.263 366.981,70.205 363.594,75.599C371.777,70.252 383.492,56.239 383.268,37.938C383.442,19.755 371.837,5.811 363.637,0.418C366.96,5.765 375.328,19.778 375.104,38.079Z" style="fill:white;fill-rule:nonzero;"/>
                            <path id="path20686" d="M375.104,38.079C375.278,56.263 366.981,70.205 363.594,75.599C371.777,70.252 383.492,56.239 383.268,37.938C383.442,19.755 371.837,5.811 363.637,0.418C366.96,5.765 375.328,19.778 375.104,38.079Z" style="fill:none;fill-rule:nonzero;stroke:white;stroke-width:1px;"/>
                        </g>
                    </g>
                </g>
            </g>
        </g>
    </g>
</svg>
